X:1
T:Morte m'ha morto
T:Morte m'ha morto
T:Girolamo Scotto
T:Source : Madrigali a tre voci---Venetia---G.Scotto---1541. Editor : André Vierendeels (08/08/16).
T:Notes : Original clefs : C2, C4, F4 Editorial accidentals above the staff Original note values have been halved "Tertii toni"
T:©
T:©
T:©
T:©
T:©
T:©
C:Girolamo Scotto
Z:©
%%score [ 1 2 3 ]
L:1/8
Q:1/4=130
M:2/2
K:F
V:1 treble nm="Alto" snm="A"
V:2 treble-8 nm="Tenor" snm="T"
V:3 bass nm="Bass" snm="B"
V:1
 A8 | E4 G4 | D2 D2 F4 | C4 F4 | E3 F G2 G2 | D2 D2 F4 | C3 D EF G2- | GF/E/ D2 C2 _E2 | %8
w: Mor-|te, mor-|te m'ha mor-|to, mor-|te, _ _ mor-|te m'ha mor-||* * * * * to,|
"^-natural" D3 E F2 E2 | F2 E4 D2 | E3 D EF G2 | F2 B4 A2- | A2 G2 A4 | z2 D2 G4 | A4 D2 E2 | %15
w: m'ha mor- to, et|so- la puo|far _ _ _ _|_ mor- *|* * te,|et so-|la puo far|
 F4 E4 | z2 E2 E2 E2 | G2 A3 GFE | D2 E2 F2 D2 | C3 D E2 F2- | F2 ED E4 | z4 z2 E2 | E2 E2 F2 F2 | %23
w: mor- te,|ch'io tor- ni'a|ri- ve- * * *|der quel vi- so|lie- * * *|* * * to,|che|pia- cer mi fa-|
 C3 D EF G2- | G2 F2 E2 F2 | C4 D3 E | F2 E2 F2 D2 | E4 z4 | z2 F2 F2 E2 | F2 F2 E2 A2 | A2 G2 F4 | %31
w: |* ce i so-|spi- * *|* ri'el pian- *|to,|che pia- cer|mi fa- ce i|so- spi- ri'el|
 E4 F4- | F2 F2 E4 | D4 F4- | F2 F2 E4 | F2 C2 C2 C2 | D2 D2 E3 F | G6 F2 | E2 G2 A4- | %39
w: pian- to,|_ l'au- ra|dol- ce,|_ l'au- ra|dol- ce, et la|piog- gi'a le _|_ mie|not- * *|
 A2 B3 A A2- | A2 G2 A2 F2 | F2 F2 E2 E2 | D4 C2 F2 | E2 E4 D2 | E4 F3 E | D2 G2 F2 E2- | %46
w: |* * te, quan-|do'i pen- sier el-|let- ti, Tes-|se- a in|ri- * *|me, Tes- se'a in|
 ED D4 C2 | D4 G,4 | z2 D2 E2 E2 | F2 F2 G4 | F2 B3 A A2- | A2 G2 A4- | A4 D4- | D2 D2 D4 | %54
w: _ _ ri- *|* me|A- mor al-|zan- do'il mio-|de- bi- le sti-|* * le,|_ de|_ bi- le|
 F4 E4- | E8 |] %56
w: sti- le.|_|
V:2
 z4 A4- | A4 E4 | G4 D2 D2 | F3 E D4 | C2 c2 G2 G2 | B4 A4- | A2 A2 G3 A | B4 A2 c2- | c2 B2 c3 B | %9
w: Mor-|* te,|mor- te m'ha|mor- * *|to, mor- te m'ha|mor- to,|_ mor- * *|* te, mh'a|_ mor- * *|
 A2 G2 A4 | z2 G2 c4 | d4 G2 A2 | B4 A2 d2 | d2 d2 c2 B2- | B2 A2 B2 c2- | cB/A/ B2 c4 | %16
w: * * to,|et so-|la puo far|mor- te, et|so- la puo far|_ mor- * *||
 =B4 A2 c2 | c2 c2 A2 A2 | B2 A3 GFE | F2 E4 A2- | A2 G2 E2 A2- | A2 G2 A4- | A4 z2 A2 | %23
w: * te, che|tor- ni a ri-|ve- * * * *|* der quel|_ vi- so lie-|* * to,|_ che|
 A2 A2 G2 G2 | B2 A2 G2 F2 | E2 A2 F2 G2 | A2 c4 B2- | BA A4 G2 | A2 B2 A2 A2- | A2 B2 c2 d2 | %30
w: pia- cer mi fa-|ce i so- spi-|ri'el pian- * *|||o, i so- spi-|ri'el pian- * *|
 A2 c3 B/A/ B2 | c4 A4- | A2 A2 A4 | F4 B4- | B2 B2 G4 | A8 | B4 A2 G2- | G2 c2 B2 A2 | %38
w: |to, l'au-|* ra dol-|ce, l'au-|* ra dol-|ce,|l'au- ra dol-||
 G2 c2 c2 c2 | d2 d2 A2 A2 | B4 A4- | A4 z4 | z2 F2 F2 F2 | G2 G2 A4 | G2 c2 B2 A2- | A2 G2 A4 | %46
w: ce, et la piog-|gi'a le mie not-|* te,|_|quan- do'i pen-|sier el- et-|ti Tes- se- a|_ in ri-|
 G2 F2 E4 | D2 F2 E2 E2 | F2 B2 c2 G2 | B2 A2 GABc | d6 d2 | B4 A2 d2- | d2 c2 B4- | B2 A2 B4 | %54
w: |me, A- mor al-|zan- do'il mio de-|bi- le sti- * * *|le, il|mio de- bi-|* le sti-||
 A4 A4- | A8 |] %56
w: * le.|_|
V:3
 z8 | z8 | z8 | A,8- | A,4 E,4 | G,4 D,2 D,2 | F,4 C,4 | G,4 z2 C,2 | G,4 A,4 | D,2 E,2 F,4 | %10
w: |||Mor-|* te,|mor- te m'ha|mor- *|to, et|so- la|puo far mor-|
 E,4 z4 | z4 z2 D,2 | G,4 D,4 |"^b" B,,2 B,,2 E,4 | D,4 G,2 C,2 | D,4 A,,2 A,2- | A,2 G,2 A,2 A,2 | %17
w: te,|et|so- la|puo far mor-|te, et so-|la puo far|_ mor- te, che|
 E,2 F,3 E, D,2- | D,2 C,2 D,4 | A,,3 B,, C,2 A,,2 | B,,4 C,4 | B,,4 A,,4- | A,,4 D,4 | %23
w: tor- ni a ri|_ ve- *|der _ _ quel|vi- so|lie- to,|_ quel|
 F,2 F,2 C,4 | D,4 z2 A,,2 | A,,2 A,,2 B,,2 B,,2 | A,,2 A,,2 D,4 | C,4 B,,4 | A,,2 D,4 C,2 | %29
w: vi- so lie-|to, che|pia- cer mi fa-|ce i so-|spi- ri|el pian- *|
 D,4 E,2 F,2- | F,2 E,2 D,4 | C,4 D,4- | D,2 D,2 A,,4 | B,,4 B,,4- | B,,2 B,,2 C,4 | F,8 | %36
w: * * to,|_ el pian-|to, l'au-|* ra dol-|ce, l'au-|* ra dol-|ce,|
 z4 z2 C,2 | C,2 C,2 D,2 D,2 | E,2 E,2 F,3 E, | D,2 G,4 F,2 | G,4 D,4- | D,4 C,4 | B,,4 A,,2 A,2- | %43
w: et|la piog- gi'a le|mie not- * *||te, quan-|* do'i|pen- sier el-|
 A,2 G,2 F,4 | E,4 D,3 C, | B,,4 A,,4 | z2 D,2 A,,2 A,,2 | B,,4 C,4 | B,,4 A,,2 C,2 | D,4 _E,4 | %50
w: * let- ti|Tes- se- a|ri- me,|A- mor al-|zan- do'il|mio de- bi-|le sti-|
 D,2 G,4 F,2 | G,4 D,3 E, | F,4 G,4- | G,2 F,2 G,4 | D,4 A,4- | A,8 |] %56
w: |le de- *|* bi-|* le sti-|* le.|_|

